X:1
T:Skip to my Lou
C:Traditional
M:4/4
R:reel
L:1/4
Q:1/2=90
K:G
"G"B2G2 | BB/B/d2 | "D"A2F2 | AA/A/ "C"c2 |
"G"B2G2 | BB/B/d2 | "C"Ac/c/ "D"AD | "G"G2 G2 |]

